X:1
T:General Ludd's March 
C:Fieldtown
Q:1/4=140
M:6/8
L:1/8   
K:Gmix
P:A
dc |"G" B3/2A/G GED |"(C)" EGc "G" B2 A |"G" G3/2E/D EGA |"D" A4dc|
"G" B3/2A/G GED |"(C)" EGc "G" B2 A |"G" G3/2E/D "(C)" EGG |"G" G4 z G |
P:B
"G" G3/2B/d dBd |"(C)" e3/2d/c "G" Hd2 c| "G" B3/2A/G GBd |"D" A4 dc|
"G" B3/2A/G GED |"(C)" EGc "G" B2A| "G" G3/2E/D "(C)" EGG |"G" G4 DE |
"F" F2F EDC |"G" D3 G2A |"G" Bdc BG "(F)" F | "G" G4 z2|]

